!!!COM: Gustav Mahler
!!!CNT: Deutsch
!!!TXO: Deutsch
!!!OTL: "Ablo2sung im Sommer"
!!!LYR: Des Knaben Wunderhorn
!!!OPR: Des Knaben Wunderhorn, Part 1
!!!ENC: O'Neal Douglas
!!!YOR: CD Sheet Music: Late Romantic German Lieder
!!!YOR: CD Sheet Music, LLC, 2001
!!!ODT: 1890/
!!NB: Vocal melody and text encoded.
**kern	**text
*staff1	*staff1
=1-	=1-
*clefG2	*
*k[]	*
*M2/4	*
*MM100	*
2r	.
=2	=2
2r	.
=3	=3
{8ee	{Ku-
8ee	-ku
12dd	hat
12dd	sich
12dd	zu
=4	=4
12cc	To-
12cc	-de
12cc	ge-
16b	-fal-
16b	-len,
8r	.
=5	=5
12cc	To-
12cc	-de
12cc	ge-
16b	-fal-
16b	-len
16r	.
16e	an
=6	=6
8a	ei-
8b	-ner
(16dd	gru2-
16cc)	|
(16b	-nen
16a)	|
=7	=7
(16ee	Wei-
16ff	|
16ee	|
16ff)	|
4ee}	-den!}
=8	=8
{(16dd	{Wei-
16ee	|
16dd	|
16ee)	|
4dd	-den!
=9	=9
(16cc	Wei-
16dd	|
16cc	|
16dd)	|
4cc	-den!
=10	=10
12b	Ku-
12b	-ku
12ee	ist
4cc	todt!
=11	=11
12b	Ku-
12b	-kuk
12ee	ist
8cc	todt!
16r	.
16cc	hat
=12	=12
8.a	sich
16a	zu
(16dd	Tod'
16cc)	|
(16b	ge-
16a)	|
=13	=13
4b	-fal-
8a}	-len}
8r	.
=14	=14
2r	.
=15	=15
2r	.
=16	=16
2r	.
=17	=17
4r	.
8r	.
{8ee	{Wer
=18	=18
8b	soll
8b	uns
8cc	denn
8cc	den
=19	=19
8b	Som-
8b	-mer
8a	lang
8a	die
=20	=20
8g	Zeit
8g	und
8f#	Weil'
8f#	ver-
=21	=21
4e	-trei-
8e}	-ben?}
8r	.
=22	=22
2r	.
=23	=23
2r	.
=24	=24
2r	.
=25	=25
2r	.
=26	=26
8r	.
{8cc	{Ku-
8a	-kuk!
8r	.
=27	=27
8r	.
8cc	Ku-
8a	-kuk!
8ee	Wer
=28	=28
8dd	soll
8dd	uns
8cc	denn
8cc	den
=29	=29
8b	Som-
8b	-mer
8a	lang
8a	die
=30	=30
8g	Zeit
8g	und
8f	Weil'
8f	ver-
=31	=31
4e	-trei-
8e}	-ben?}
8r	.
=32	=32
*k[f#c#g#]	*
2r	.
=33	=33
2r	.
=34	=34
2r	.
=35	=35
4r	.
8r	.
{(16e	{Ei!
16a)	|
=36	=36
8cc#	Das
8cc#	soll
8ee	thun
8ee	Frau
=37	=37
8dd	Nach-
8dd	-ti-
8cc#	-gall!
8cc#	Die
=38	=38
8b	sitzi
8b	auf
(16b	gru2-
16dd)	|
(16cc#	-nem
16b)	|
=39	=39
4cc#	Zwei-
8a}	-ge!}
{8cc#	{Die
=40	=40
8ff#	klei-
8cc#	-ne,
8cc#	fei-
8ff#	-ne
=41	=41
(16ee	Nach-
16dd)	|
(16cc#	-ti-
16b)	|
8a	-gall,
8cc#	die
=42	=42
8ff#	lie
8cc#	be,
(16cc#	su2-
16ff#)	|
(16ee	-sse
16dd)	|
=43	=43
(16cc#	Nach-
16dd)	|
(16cc#	-ti-
16b)	|
8a	-gall!
8a	Sie
=44	=44
8g#	singt
8cc#	und
8b	springt,
8b	ist
=45	=45
8a	all'-
8ee	-zeit
8dd#	froh,
8dd#	wenn
=46	=46
8cc#	an-
8cc#	-dre
(16ff#	Vo2-
16ee)	|
(16dd#	-gel
16cc#)	|
=47	=47
(16b	schwei-
16cc#	|
16b	|
16cc#)	|
4b}	-gen!}
=48	=48
2r	.
=49	=49
2r	.
=50	=50
4r	.
8r	.
{8e	{Wir
=51	=51
8b#	war-
8b#	-ten
8ee	auf
8ee	Frau
=52	=52
8dd	Nach-
8dd	-ti-
8cc#	-gall,
8cc#	die
=53	=53
8b	wohnt
8b	im
(16b	gru2-
16cc#)	|
(16b	-nen
16ff#)	|
=54	=54
4ee	Ha-
8ee}	-ge,}
{8e	{und
=55	=55
8a	wenn
8a	der
12ee	Ku-
12ee	-kuk
12ee	zu
=56	=56
8a	En-
8a	-de
8ee	ist,
8ee	dann
=57	=57
8a	fa2ngt
(16a	sie
16b)	|
(16dd	an
16ccn)	|
(16b	zu
16a)	|
=58	=58
4b	schla-
8a}	-gen!}
8r	.
=59	=59
*k[]	*
2r	.
=60	=60
2r	.
=61	=61
2r	.
=62	=62
2r	.
=63	=63
2r	.
=64	=64
2r	.
=65	=65
2r	.
=66	=66
2r	.
=67	=67
2r	.
==	==
*-	*-
